!!!COM: Anon.
!!!OCL: Francis James Child
!!!OPR: The English and Scottish Popular Ballads
!!!OVM: Vol. 1
!!!ONB: Ballad No. 20, Tune No. 3
!!!ONM: No. 20
!!!PDT: 1882
!!!YEM: Public domain.
**kern
*M4/4
*g:
=1
{4d
8d
8d
4.b-
8a
=2
8g
8g
8d
8d
4c}
4r
!! Second phrase:
=3
{4.d
8f
4d
8c
8d
=4
4f
4g
4g}
!! Third phrase:
{8b-
8cc
=5
4dd
4dd
4b-
8b-
8a
=6
4g
8g
8d
4c}
!! Fourth phrase:
{8B-
8c
=7
4.d
8c
4B-
4c
=8
4d
4g
4g}
4r
====
*-
!!!OCY: Britain; England
!!!PPP: Boston
!!!ODT: <1882
!!!AFR: folk song
!!!AST: monophony
!!!AMT: simple quadruple
!!!SCA: Child Collection
!!!AIN: vox
!!!EEV: 1.0
!!!RDT: 1987 June
!!!YER: 1994 August 10
!!!VTS: 652652838
